X: 1
T: West Side Trows Reel
N: heard from the fairies by Hakki Johnson in Aithsting, 1790
Z: John Chambers
N: From a recording by , plus Jack Campin's transcription (labelled K:Ador)
M: 4/4
L: 1/8
K: D
   a | "D"fdfd fd2a | fdfd "Em"eB-"(A7)"Bg | "D"{fg}f2{fg}fe defd | "Em"{ef}e2"(D)"fd "A7"eB2 ||
   f | "D"adfd ad2f | adfd "Em"eB-"(A7)"Bg | "D"{fg}f2{fg}fe defd | "Em"{ef}e2"(D)"fd "A7"eA2 ||
|: A | "D"dAFA dA2A | dAFA "Em"BE-"(A7)"EA | "D"dAFA    "(G)"BAGF | "Em"EFAB          "A7"cA2 :|
